!!!OTL: Kang tai haozi
!!!ARE: Asia, China,ÿGuangdong, Guangzhou
!! II, 396
!!!SCT: C1513
!!!YEM: Copyright 1995, estate of Helmut Schaffrath.
**kern
*ICvox
*Ivox
*M2/4
*k[b-e-]
*B-:
{8ccc
8ccc
4bb-
=1
8bb-
8ff
4bb-
=2
8ff
8ff
4bb-
=3
8bb-
8bb-
4bb-}
=4
{8ccc
8gg
12bb-
12ccc
12bb-
=5
8ccc
8ccc
4bb-
=6
8bb-
8ccc
8gg
8bb-
=7
8ccc
8gg
4bb-}
=8
{8gg
8gg
12bb-
12bb-
12bb-
=9
4gg
4bb-
=10
8ccc
8ccc
4bb-
=11
8ccc
8gg
4bb-}
=12
{8gg
8ccc
8gg
8bb-
=13
8bb-
8gg
4bb-
=14
8ccc
8gg
8bb-
8bb-
=15
8bb-
8gg
8bb-
8bb-}
=16
{8gg
8gg
8gg
8bb-
=17
8ccc
8gg
4bb-
=18
8bb-
8ccc
8gg
8bb-
=19
8ccc
8bb-
4bb-}
=20
{8ccc
8bb-
8ccc
8bb-
=21
8ccc
8gg
8bb-
8bb-
=22
8ff
8bb-
8ff
8ff
=23
8ccc
8gg
8bb-
8ccc}
=24
{8gg
8gg
8bb-
8bb-
=25
8ccc
8gg
8bb-
8bb-
=26
8bb-
8ccc
8bb-
8bb-
=27
8ccc
8bb-
4ccc}
=28
{8bb-
8ccc
8gg
8bb-
=29
8ccc
8bb-
8bb-
8bb-
=30
8ccc
8gg
8ccc
8bb-
=31
8bb-
8gg
8bb-
8bb-}
=32
{8gg
8ccc
4bb-
=33
8bb-
8gg
8bb-
8bb-
=34
8gg
8bb-
8gg
8gg
=35
8bb-
8gg
4bb-}
=36
{8bb-
8bb-
8bb-
8bb-
=37
8bb-
8gg
4bb-
=38
4bb-
8gg
8bb-}
==
!!!AGN: Haozi
!!!AMT: simple duple
!!!AIN: vox
!!!EED: Helmut Schaffrath
!!!EEV: 1.0
*-
